!!!COA: des Prez, Josquin
!!!CDT: ~1450-1521/08/27
!!!OTL: Paratum cor meum
!!!AGN: Motet
!!!SCT: NJE 18.5
!!!SCA: New Josquin Edition 18.5
!!!voices: 4
**kern	**kern	**kern	**kern
*part4	*part3	*part2	*part1
*staff4	*staff3	*staff2	*staff1
*Ivox	*Ivox	*Ivox	*Ivox
*I"Bassus	*I"Tenor	*I"Altus	*I"Discantus
*I'B	*I'T	*I'A	*I'D
*>[A,B,C]	*>[A,B,C]	*>[A,B,C]	*>[A,B,C]
*>A	*>A	*>A	*>A
*clefF4	*clefGv2	*clefGv2	*clefG2
*k[]	*k[]	*k[]	*k[]
*a:	*a:	*a:	*a:
*M2/1	*M2/1	*M2/1	*M2/1
*met(C|)	*met(C|)	*met(C|)	*met(C|)
!!section: Prima pars: aratum cor meum
!!!OMD: Prima pars
=	=	=	=
0G	0G	0d	0g
=3	=3	=3	=3
1E	1B	1e	1g
1E	1B	1e	1g
=4	=4	=4	=4
0C	0c	0e	1.g
.	.	.	[2a
=5	=5	=5	=5
0D	0A	0d	4a]
.	.	.	4g
.	.	.	4f
.	.	.	4e
.	.	.	1f
=6	=6	=6	=6
0E	0G	0B	0g
=7	=7	=7	=7
0C	0G	0c	0e
=8	=8	=8	=8
0GG	0G	0B	0d
=9	=9	=9	=9
1r	1r	1r	1r
[1C	[1G	[1c	[1e
=10	=10	=10	=10
2C]	2G]	2c]	2e]
2C	2G	2c	2e
1C	1G	1c	1e
=11	=11	=11	=11
0GG	0G	0B	0d
=12	=12	=12	=12
0D	0F	0A	0d
=13	=13	=13	=13
0AA	0E	0A	0c
=14	=14	=14	=14
1r	1r	1r	1r
1AA	1E	1A	1c
=15	=15	=15	=15
1D	1F	1A	1d
1D	1A	1d	1f
=16	=16	=16	=16
1r	1r	1r	1r
1D	1A	1d	1f
=17	=17	=17	=17
1G	1B	1d	1g
1F	1c	1f	[1a
=18	=18	=18	=18
1D	1d	1f	2a]
.	.	.	2a
[1G	[1d	[1g	[1b
=19	=19	=19	=19
2G]	2d]	2g]	2b]
2D	2d	2f	2a
1D	1d	1f	2a
.	.	.	[2dd
=20	=20	=20	=20
2.G	2r	2.g	4dd]
.	.	.	4cc
.	2.d	.	4b
4A	.	4f	4a
2G	.	4d	2b
.	4c	4e	.
2F	2A	2f	[2a
=21	=21	=21	=21
2G	2B	2d	4a]
.	.	.	4g
2C	2c	2e	1g
1D	1A	1d	.
.	.	.	2f#Xi
=22	=22	=22	=22
0GG	0G	1d	1g
.	.	1r	1r
=23	=23	=23	=23
0r	0r	0e	0g
=24	=24	=24	=24
0r	0r	1.f	1.a
.	.	4e	4g
.	.	4d	4f
=25	=25	=25	=25
0r	0r	4c	1e
.	.	4B	.
.	.	1A	.
.	.	.	1f
.	.	4G	.
.	.	4F	.
=26	=26	=26	=26
0r	0r	2A	2e
.	.	2B-X	1d
.	.	1G	.
.	.	.	4c
.	.	.	4B
=27	=27	=27	=27
0r	0r	0F	1A
.	.	.	2r
.	.	.	[2a
=28	=28	=28	=28
0r	0r	2r	2a]
.	.	2.F	2a
.	.	.	1a
.	.	4G	.
.	.	4A	.
.	.	4B	.
=29	=29	=29	=29
0r	0r	4c	1g
.	.	4d	.
.	.	1e	.
.	.	.	1e
.	.	2c	.
=30	=30	=30	=30
0r	0r	2d	2.f
.	.	1f	.
.	.	.	4g
.	.	.	2a
.	.	[2e	[2g
=31	=31	=31	=31
0r	0r	2e]	2g]
.	.	1d	2f
.	.	.	1e
.	.	2c#Xi	.
=32	=32	=32	=32
0r	0r	1d	1d
.	.	1r	1r
=33	=33	=33	=33
0D	0A	0d	0f
=34	=34	=34	=34
1D	1A	1d	1f
1D	1A	1d	1f
=35	=35	=35	=35
1AA	2r	1c	1e
.	1A	.	.
1C	.	1c	1e
.	2G	.	.
=36	=36	=36	=36
1D	1F	1B	1d
1C	[1G	1c	1e
=37	=37	=37	=37
2r	0G]	2B	0r
2C	.	2c	.
2BB	.	2d	.
[2C	.	[2e	.
=38	=38	=38	=38
2C]	1A	2e]	0r
4BB	.	4d	.
4AA	.	4c	.
2BB	1G	2d	.
[2C	.	[2e	.
=39	=39	=39	=39
4C]	1E	4e]	1r
4BB	.	4d	.
4AA	.	1c	.
4GG	.	.	.
1AA	1F	.	2r
.	.	4B	2cc
.	.	4A	.
=40	=40	=40	=40
2GG	2G	2B	2b
1.AA	1E	1A	1cc
.	4D	2F	4b
.	4C	.	4a
=41	=41	=41	=41
2GG	2D	2G	2b
1AA	2C	2E	2.cc
.	2E	1A	.
.	.	.	4b
[2D	[2F	.	4a
.	.	.	4g
=42	=42	=42	=42
2D]	2F]	1d	2a
1GG	2.G	.	1b
.	.	2.G	.
.	4A	.	.
[2G	[2B	.	2g
.	.	4A	.
=43	=43	=43	=43
2G]	2B]	4B	2.dd
.	.	4c	.
2G	4A	4d	.
.	4G	4e	8ccL
.	.	.	8bJ
2F	2A	2f	2a
[2G	2G	[2d	[2b
=44	=44	=44	=44
2G]	1B	2d]	2b]
2GG	.	4c	4a
.	.	4B	4g
2FF	2c	2A	2a
[2GG	2B	2G	[2b
=45	=45	=45	=45
1GG]	2G	1d	4b]
.	.	.	4a
.	2B	.	1g
1D	1A	1d	.
.	.	.	2f#Xi
=46	=46	=46	=46
0GG	0G	1r	[0g
.	.	1d	.
=47	=47	=47	=47
0C	1r	1.e	0g_
.	1G	.	.
.	.	4d	.
.	.	4c	.
=48	=48	=48	=48
1r	1G	2d	0g]
.	.	1e	.
1E	1C	.	.
.	.	4d	.
.	.	4c	.
=49	=49	=49	=49
2E	1G	0B	1r
2E	.	.	.
1E	2.E	.	1g
.	4F	.	.
=50	=50	=50	=50
0E	2G	2.E	2g
.	2A	.	2g
.	.	4F	.
.	2B	2G	1g
.	2c	2A	.
=51	=51	=51	=51
0E	2B	2B	0g
.	2E	2c	.
.	2.G	2B	.
.	.	2E	.
.	4A	.	.
=52	=52	=52	=52
1r	2B	2.G	[0g
.	2c	.	.
.	.	4A	.
1G	2d	2B	.
.	2e	2c	.
=53	=53	=53	=53
2G	2d	2d	0g]
2G	2G	2e	.
[1G	2r	1d	.
.	[2B	.	.
=54	=54	=54	=54
2G]	2B]	1e	0r
1A	1c	.	.
.	.	1f	.
4G	4B	.	.
4F	4A	.	.
=55	=55	=55	=55
2G	2B	1e	0r
1A	1c	.	.
.	.	2c	.
2F	2A	[2d	.
=56	=56	=56	=56
2G	2B	2d]	0g
2.E	2c	2e	.
.	2G	2B	.
4F	.	.	.
[2G	[2B	[2e	.
=57	=57	=57	=57
2G]	2B]	2e]	1a
4F	4A	4d	.
4E	4G	4c	.
2F	1A	1d	1a
2F	.	.	.
=58	=58	=58	=58
0E	1B	0e	0g
.	2r	.	.
.	[2G	.	.
=59	=59	=59	=59
1.C	2G]	1.e	1.cc
.	4F	.	.
.	4E	.	.
.	2A	.	.
2C	2G	2e	2cc
=60	=60	=60	=60
0GG	0G	0d	0b
=61	=61	=61	=61
0r	1r	1r	1r
.	[1C	[1e	[1g
=62	=62	=62	=62
0r	2C]	2e]	2g]
.	2C	2e	2g
.	2.C	1e	1g
.	4D	.	.
=63	=63	=63	=63
0r	2E	2e	2g
.	2D	1f	1a
.	1F	.	.
.	.	4e	4g
.	.	4d	4f
=64	=64	=64	=64
0r	2C	1e	1g
.	2E	.	.
.	2D	1f	1a
.	2F	.	.
=65	=65	=65	=65
0r	0C	1e	1g
.	.	2r	2r
.	.	2e	2g
=66	=66	=66	=66
0r	0r	2.f	2.a
.	.	4e	4g
.	.	2d	2f
.	.	2c	2e
=67	=67	=67	=67
0r	0G	0B	0d
=68	=68	=68	=68
0C	0G	1r	1r
.	.	1c	1e
=69	=69	=69	=69
0C	1r	0c	0e
.	1G	.	.
=70	=70	=70	=70
1.E	2.G	1B	1.g
.	4A	.	.
.	4B	2G	.
.	4c	.	.
2D	2d	2A	2f
=71	=71	=71	=71
1E	2B	1e	1g
.	1c	.	.
1F	.	1A	[1a
.	[2d	.	.
=72	=72	=72	=72
0D	4d]	1d	2a]
.	4e	.	.
.	2.f	.	2.dd
.	.	1f	.
.	4e	.	4cc
.	4d	.	4b
.	4c	.	4a
=73	=73	=73	=73
[0E	1B	0e	0g
.	2r	.	.
.	2B	.	.
=74	=74	=74	=74
0E]	2c	2r	1r
.	2.B	2.e	.
.	.	.	1g
.	4A	4d	.
.	[2G	4c	.
.	.	4B	.
=75	=75	=75	=75
1D	2G]	1d	1a
.	2F#Xi	.	.
1GG	1G	1d	1b
=76	=76	=76	=76
0C	1E	1c	1g
.	1G	1e	[1cc
=77	=77	=77	=77
1AA	0A	[0e	2cc]
.	.	.	2cc
1AA	.	.	1cc
=78	=78	=78	=78
1E	1G	1e]	1b
[1F	[1A	1c	1a
=79	=79	=79	=79
2F]	2A]	1f	1.cc
2G	2B	.	.
1A	1c	[1e	.
.	.	.	4b
.	.	.	4a
=80	=80	=80	=80
0E	1B	2e]	0g
.	.	4d	.
.	.	4c	.
.	[1e	1B	.
=81	=81	=81	=81
0AA	2e]	0A	1r
.	4d	.	.
.	4c	.	.
.	2f	.	2r
.	[2e	.	[2cc
=82	=82	=82	=82
1.A	2e]	1c	2cc]
.	2c	.	4b
.	.	.	4a
.	2A	1e	2cc
2G	2B	.	[2b
=83	=83	=83	=83
2A	2c	1f	4b]
.	.	.	4a
2D	2d	.	1a
1E	1B	1e	.
.	.	.	2g#Xi
=84	=84	=84	=84
1r	[0A	1c	[0a
[1F	.	1r	.
=85	=85	=85	=85
2F]	0A]	1f	0a]
4E	.	.	.
4D	.	.	.
2C	.	2e	.
[2D	.	[2f	.
=86	=86	=86	=86
2D]	0r	2f]	0r
2F	.	4e	.
.	.	4d	.
2E	.	2.c	.
[2F	.	.	.
.	.	4B	.
=87	=87	=87	=87
2F]	0r	2A	1f
4E	.	1d	.
4D	.	.	.
1E	.	.	1g
.	.	2c	.
=88	=88	=88	=88
1D	1F	4d	2f
.	.	4c	.
.	.	4B	2.d
.	.	4A	.
1GG	1G	1B	.
.	.	.	4c
.	.	.	4d
.	.	.	4e
=89	=89	=89	=89
0D	2F	1A	4f
.	.	.	4g
.	4D	.	2.a
.	4E	.	.
.	4F	1r	.
.	4G	.	4g
.	[2A	.	2f
=90	=90	=90	=90
1D	2A]	1A	2f
.	4G	.	4e
.	4F	.	4d
1C	2G	1c	1e
.	[2A	.	.
=91	=91	=91	=91
1D	4A]	2B	0r
.	4G	.	.
.	2F	2A	.
2AA	2E	2c	.
[2D	[2F	4B	.
.	.	4A	.
=92	=92	=92	=92
4D]	4F]	4B	1d
4C	4E	4A	.
4BB	4D	4G	.
4AA	4C	4F	.
1BB	1D	1G	1d
=93	=93	=93	=93
1AA	2E	2A	1c
.	1A	2E	.
[1D	.	2F	[1f
.	4G	[2A	.
.	4F	.	.
=94	=94	=94	=94
2D]	2A	2A]	2f]
2D	2B	4G	2f
.	.	4F	.
1C	1c	1G	2e
.	.	.	[2g
=95	=95	=95	=95
0C	[0G	0c	4g]
.	.	.	4f
.	.	.	1e
.	.	.	4d
.	.	.	4c
=96	=96	=96	=96
0GG	0G]	0B	2d
.	.	.	2.g
.	.	.	4f
.	.	.	4e
.	.	.	4d
=97	=97	=97	=97
0AA	0E	0A	2c
.	.	.	1d
.	.	.	2c#Xi
=98	=98	=98	=98
0D	2D	1r	0d
.	1F	.	.
.	.	2.A	.
.	4E	.	.
.	4D	4B	.
=99	=99	=99	=99
0r	0C	4c	1r
.	.	4d	.
.	.	1e	.
.	.	.	1g
.	.	4d	.
.	.	4c	.
=100	=100	=100	=100
0r	1r	2d	1b
.	.	4G	.
.	.	4A	.
.	1G	4B	1b
.	.	4c	.
.	.	4d	.
.	.	4e	.
=101	=101	=101	=101
0r	1A	2f	2a
.	.	1e	1cc
.	1A	.	.
.	.	4d	4b
.	.	4c	4a
=102	=102	=102	=102
0r	1E	2B	0g
.	.	1c	.
.	2r	.	.
.	[2E	2B	.
=103	=103	=103	=103
0r	4E]	1e	1r
.	4F	.	.
.	1G	.	.
.	.	2d	1g
.	4F	2e	.
.	4E	.	.
=104	=104	=104	=104
0r	1D	1f	1a
.	1C	1e	1cc
=105	=105	=105	=105
0r	1G	1d	1.b
.	1E	1e	.
.	.	.	4a
.	.	.	4g
=106	=106	=106	=106
0r	1G	2d	1b
.	.	2.e	.
.	2.A	.	2r
.	.	4d	.
.	.	4c	[2a
.	4G	4B	.
=107	=107	=107	=107
0r	4F	2A	4a]
.	4E	.	4g
.	2D	2.d	4f
.	.	.	4e
.	2G	.	2d
.	.	4B	.
.	2A	2c	[2a
=108	=108	=108	=108
0r	2F	2d	4a]
.	.	.	4g
.	2G	2B	1g
.	1D	1A	.
.	.	.	2f#Xi
=109	=109	=109	=109
1GG	0D	[0G	1g
1GG	.	.	1r
=110	=110	=110	=110
1C	0r	0G]	1e
1C	.	.	1e
=111	=111	=111	=111
1E	0r	0r	1.g
[1G	.	.	.
.	.	.	4f
.	.	.	4e
=112	=112	=112	=112
2G]	0r	0r	2d
4F	.	.	2g
4E	.	.	.
2D	.	.	2f
[2E	.	.	[2g
=113	=113	=113	=113
4E]	0r	1r	4g]
4F	.	.	4f
2G	.	.	1e
1F	.	1A	.
.	.	.	2d
=114	=114	=114	=114
0E	0r	1B	1e
.	.	[1c	2r
.	.	.	[2e
=115	=115	=115	=115
1.A	0r	2c]	2e]
.	.	4B	4d
.	.	4A	4c
.	.	1c	2e
2A	.	.	2f
=116	=116	=116	=116
1E	0r	2B	2.g
.	.	1c	.
.	.	.	4e
1A	.	.	2f
.	.	4B	[2e
.	.	4A	.
=117	=117	=117	=117
2G	0r	2B	4e]
.	.	.	4d
2F	.	1A	1d
1E	.	.	.
.	.	2G	2c#Xi
=118	=118	=118	=118
[0D	[0F	[0A	[0d
=119	=119	=119	=119
0D]	0F]	0A]	1d]
.	.	.	2r
.	.	.	[2d
=120	=120	=120	=120
0GG	1.G	1.B	2d]
.	.	.	2e
.	.	.	2d
.	[2B	2G	[2g
=121	=121	=121	=121
0GG	4B]	1G	4g]
.	4c	.	4a
.	1d	.	1b
.	.	1d	.
.	4c	.	4a
.	4B	.	4g
=122	=122	=122	=122
1C	1c	1e	2a
.	.	.	1g
1D	1A	1d	.
.	.	.	2f#Xi
=123	=123	=123	=123
[0E	[0G	[0B	1.g
.	.	.	2e
=124	=124	=124	=124
0E]	0G]	0B]	1e
.	.	.	2r
.	.	.	[2e
=125	=125	=125	=125
1C	0r	1c	2e]
.	.	.	2.g
[1G	.	2.d	.
.	.	.	4a
.	.	.	[2b
.	.	4c	.
=126	=126	=126	=126
2G]	1G	2B	2b]
4F	.	2c	4a
4E	.	.	4g
1F	1c	1A	1a
=127	=127	=127	=127
0G	1B	4G	2d
.	.	4A	.
.	.	4B	4g
.	.	4c	4a
.	2G	2d	4b
.	.	.	4cc
.	[2B	[2G	[2dd
=128	=128	=128	=128
0GG	4B]	4G]	4dd]
.	4c	4A	4cc
.	1d	4B	1b
.	.	4c	.
.	.	1d	.
.	4c	.	4a
.	4B	.	4g
=129	=129	=129	=129
0D	2A	1r	2f#Xi
.	2G	.	1g
.	1A	1d	.
.	.	.	2f#Xi
=130	=130	=130	=130
2.E	[0Gl	1.B	[0gl
4F	.	.	.
2G	.	.	.
[2E	.	4A	.
.	.	4G	.
=131	=131	=131	=131
2E]	0G_	2B	0g_
4D	.	2c	.
4C	.	.	.
2BB	.	2d	.
2C	.	2e	.
=132	=132	=132	=132
0GGl	0G]	0dl	0g]
!!LO:LB:i:g=z
=133||	=133||	=133||	=133||
*>B	*>B	*>B	*>B
*clefF4	*clefGv2	*clefGv2	*clefG2
*k[]	*k[]	*k[]	*k[]
*M2/1	*M2/1	*M2/1	*M2/1
*met(C|)	*met(C|)	*met(C|)	*met(C|)
!!section: Secunda pars: Salvum fac
!!!OMD: Secunda pars: Salvum fac
1.C	1G	0c	0r
.	[1A	.	.
2AA	.	.	.
=134	=134	=134	=134
2.C	2A]	0c	0r
.	1G	.	.
4D	.	.	.
2E	.	.	.
[2F	[2A	.	.
=135	=135	=135	=135
2F]	2A]	1d	0r
4E	4G	.	.
4D	4F	.	.
2F	2A	1c	.
2E	[2G	.	.
=136	=136	=136	=136
2C	2G]	1e	0r
2E	1c	.	.
1D	.	1f	.
.	2B	.	.
=137	=137	=137	=137
1.C	2c	1.e	0r
.	4B	.	.
.	4A	.	.
.	2G	.	.
4BB	2A	4d	.
4AA	.	4c	.
=138	=138	=138	=138
2GG	2D	1B	0r
2BB	2G	.	.
2AA	2F	2c	.
2GG	[2G	[2B	.
=139	=139	=139	=139
1G	4G]	2B]	0r
.	4A	.	.
.	2B	4A	.
.	.	4G	.
2F	2A	2c	.
2G	2G	[2B	.
=140	=140	=140	=140
1GG	2r	4B]	0r
.	.	4A	.
.	1B	1G	.
2r	.	.	.
[2G	4A	4F	.
.	4G	4E	.
=141	=141	=141	=141
2G]	2B	2D	0r
4F	2c	2C	.
4E	.	.	.
1F	1A	1D	.
=142	=142	=142	=142
1G	1B	1r	0r
2r	1B	[1d	.
2G	.	.	.
=143	=143	=143	=143
2F	2r	1d]	0r
2D	1A	.	.
2F	.	1d	.
2G	[2B	.	.
=144	=144	=144	=144
2E	2B]	1e	0r
2C	1c	.	.
1G	.	2.d	.
.	2B	.	.
.	.	4e	.
=145	=145	=145	=145
2F	2A	2f	0r
2G	2B	1e	.
2.C	2c	.	.
.	4B	4d	.
4D	4A	4c	.
=146	=146	=146	=146
2E	2G	2B	0r
2C	1A	1c	.
1D	.	.	.
.	4G	2B	.
.	4F	.	.
=147	=147	=147	=147
0C	2A	1c	0r
.	2.G	.	.
.	.	2r	.
.	4F	.	.
.	4E	[2c	.
.	4D	.	.
=148	=148	=148	=148
1r	2C	4c]	0r
.	.	4B	.
.	1c	1A	.
1C	.	.	.
.	4B	4G	.
.	4A	4F	.
=149	=149	=149	=149
1C	2G	2E	0r
.	1A	1c	.
1C	.	.	.
.	4G	4B	.
.	4F	4A	.
=150	=150	=150	=150
1.C	2.E	2G	0r
.	.	2A	.
.	4F	.	.
.	2G	2.E	.
2C	2A	.	.
.	.	4F	.
=151	=151	=151	=151
[0C	2G	2G	0r
.	2.c	2A	.
.	.	2G	.
.	4d	.	.
.	[2e	[2c	.
=152	=152	=152	=152
0C_	2e]	4c]	0r
.	.	4d	.
.	2.c	1e	.
.	4B	.	.
.	2A	[2c	.
=153	=153	=153	=153
1C]	2G	4c]	0r
.	.	4B	.
.	2A	2A	.
1BB	4D	2G	.
.	4E	.	.
.	4F	2d	.
.	4G	.	.
=154	=154	=154	=154
1C	2A	2c	0r
.	1G	1e	.
1AA	.	.	.
.	2F#Xi	4d	.
.	.	4c	.
=155	=155	=155	=155
0GG	0G	1B	0r
.	.	2r	.
.	.	[2e	.
=156	=156	=156	=156
0r	1A	2e]	0r
.	.	2c	.
.	1G	2d	.
.	.	[2e	.
=157	=157	=157	=157
0r	1A	2e]	0r
.	.	2c	.
.	2F	2d	.
.	2G	[2e	.
=158	=158	=158	=158
0r	2.A	4e]	0r
.	.	4d	.
.	.	4c	.
.	4G	4B	.
.	4F	2A	.
.	4E	.	.
.	[2D	[2d	.
=159	=159	=159	=159
0r	2D]	4d]	0r
.	.	4c	.
.	1G	2B	.
.	.	1A	.
.	2F#Xi	.	.
=160	=160	=160	=160
0C	1G	1G	0r
.	2r	1c	.
.	[2G	.	.
=161	=161	=161	=161
1C	1G]	1r	0r
1C	2A	1e	.
.	[2G	.	.
=162	=162	=162	=162
0C	2G]	2e	0r
.	2.c	2e	.
.	.	2e	.
.	4d	.	.
.	[2e	[2g	.
=163	=163	=163	=163
1r	2e]	2g]	0r
.	4d	4f	.
.	4c	4e	.
1E	2.B	1e	.
.	4A	.	.
=164	=164	=164	=164
1.G	4B	1d	0r
.	4c	.	.
.	1B	.	.
.	.	1e	.
4F	4A	.	.
4E	4G	.	.
=165	=165	=165	=165
2F	2A	1d	0r
1G	1B	.	.
.	.	1e	.
[2A	[2c	.	.
=166	=166	=166	=166
2A]	2c]	1f	0r
4G	4B	.	.
4F	4A	.	.
2G	1B	2d	.
[2E	.	[2g	.
=167	=167	=167	=167
2E]	2.G	4g]	0r
.	.	4f	.
1G	.	2d	.
.	4A	.	.
.	2B	1e	.
[2A	[2c	.	.
=168	=168	=168	=168
2A]	2c]	1f	0r
4G	4B	.	.
4F	4A	.	.
2G	2B	2d	.
[2E	2G	[2g	.
=169	=169	=169	=169
2E]	2B	2g]	0r
4D	2c	4f	.
4C	.	4e	.
1D	1A	4f	.
.	.	4e	.
.	.	4d	.
.	.	4c	.
=170	=170	=170	=170
[0E	[0G	1B	0r
.	.	2r	.
.	.	[2B	.
=171	=171	=171	=171
0E]	0G]	2B]	0r
.	.	2c	.
.	.	2B	.
.	.	[2c	.
=172	=172	=172	=172
1C	1E	2c]	0r
.	.	4B	.
.	.	4A	.
2C	2E	2G	.
2C	2E	[2A	.
=173	=173	=173	=173
1D	1F	2A]	0r
.	.	2B	.
1D	1F	2A	.
.	.	[2B	.
=174	=174	=174	=174
1E	1G	2B]	0r
.	.	2c	.
1E	1G	2B	.
.	.	[2c	.
=175	=175	=175	=175
1F	1A	2c]	0r
.	.	2d	.
1F	1A	2c	.
.	.	4B	.
.	.	4A	.
=176	=176	=176	=176
0E	1B	1G	0r
.	2B	2r	.
.	[2c	2G	.
=177	=177	=177	=177
1r	2c]	1A	0r
.	4B	.	.
.	4A	.	.
1E	2B	2G	.
.	[2G	[2c	.
=178	=178	=178	=178
1C	2G]	4c]	0r
.	.	4B	.
.	2.A	4A	.
.	.	4G	.
2D	.	4F	.
.	4G	4D	.
2C	4F	[2d	.
.	4E	.	.
=179	=179	=179	=179
2BB	2D	2d]	0r
2GG	1G	1e	.
1AA	.	.	.
.	2F#Xi	4d	.
.	.	4c	.
=180	=180	=180	=180
0GG	0G	2c	0r
.	.	4B	.
.	.	4A	.
.	.	1B	.
=181	=181	=181	=181
*M3/1	*M3/1	*M3/1	*M3/1
*met(3)	*met(3)	*met(3)	*met(3)
0G	0B	0d	0.r
1G	1B	1e	.
=182	=182	=182	=182
0G	0B	1d	0.r
.	.	1e	.
1A	1c	1f	.
=183	=183	=183	=183
1.G	1.B	1.e	0.r
4F	4A	4d	.
4E	4G	4c	.
1F	1A	1d	.
=184	=184	=184	=184
0.E	0B	0.e	0.r
.	1r	.	.
=185	=185	=185	=185
0G	0B	0d	0.r
1G	1B	1d	.
=186	=186	=186	=186
0G	0B	1e	0.r
.	.	1.d	.
1F	1A	.	.
.	.	2c	.
=187	=187	=187	=187
1.E	1.G	1.c	0.r
4D	4F	4B	.
4C	4E	4A	.
1D	1F	1B	.
=188	=188	=188	=188
0C	0G	1c	0.r
.	.	1r	.
1r	1r	1A	.
=189	=189	=189	=189
1D	1F	1A	0.r
1D	1F	1A	.
1D	1F	1B	.
=190	=190	=190	=190
0E	0G	0B	0.r
1E	1G	1c	.
=191	=191	=191	=191
0F	0A	1c	0.r
.	.	1A	.
1D	1F	1B	.
=192	=192	=192	=192
0E	0G	1B	0.r
.	.	1G	.
1C	1E	1A	.
=193	=193	=193	=193
1.D	1F	2A	0.r
.	.	2G	.
.	1A	1F	.
2C	.	.	.
1BB	2G	1D	.
.	2F	.	.
=194	=194	=194	=194
1GG	2E	1.G	0.r
.	2D	.	.
0AA	1.C	.	.
.	.	4F#Xi	.
.	.	4E	.
.	.	2.F#Xi	.
.	4D	.	.
.	4C	4E	.
=195	=195	=195	=195
*M2/1	*M2/1	*M2/1	*M2/1
*met(C|)	*met(C|)	*met(C|)	*met(C|)
1GG	1D	1G	0r
1r	1G	2r	.
.	.	[2d	.
=196	=196	=196	=196
1G	1B	2d]	0r
.	.	1e	.
[1A	[1c	.	.
.	.	4d	.
.	.	4c	.
=197	=197	=197	=197
1A]	2c]	2f	0r
.	4B	1e	.
.	4A	.	.
1G	1B	.	.
.	.	2d	.
=198	=198	=198	=198
0A	1.c	2f	0r
.	.	1e	.
.	4B	4d	.
.	4A	4c	.
=199	=199	=199	=199
1G	1B	2e	0r
.	.	1d	.
[1F	[1A	.	.
.	.	[2c	.
=200	=200	=200	=200
2F]	2A]	4c]	0r
.	.	4A	.
4E	4G	1d	.
4D	4F	.	.
1E	2.G	.	.
.	.	2c#Xi	.
.	4A	.	.
=201	=201	=201	=201
1D	2B-Xi	1d	0r
.	2A	.	.
1r	2F	2r	.
.	2D	2d	.
=202	=202	=202	=202
1F	1A	2c	0r
.	.	2d	.
[1G	2r	2e	.
.	[2B	[2d	.
=203	=203	=203	=203
1G]	2B]	2d]	0r
.	4A	4c	.
.	4G	4B	.
1F	1A	2d	.
.	.	2c	.
=204	=204	=204	=204
0G	1B	2e	0r
.	.	1d	.
.	2r	.	.
.	2B	4c	.
.	.	4B	.
=205	=205	=205	=205
1F	2c	4A	0r
.	.	4B	.
.	2A	4c	.
.	.	4d	.
[1G	[1B	2e	.
.	.	[2d	.
=206	=206	=206	=206
1G]	2B]	2d]	0r
.	4A	4c	.
.	4G	4B	.
1F	1A	2d	.
.	.	[2c	.
=207	=207	=207	=207
1E	1G	4c]	0r
.	.	4B	.
.	.	2e	.
2F	2D	2d	.
[2E	[2G	2c	.
=208	=208	=208	=208
2E]	2G]	2B	0r
4D	4F	1c	.
4C	4E	.	.
1D	1F	.	.
.	.	2B	.
=209	=209	=209	=209
0Cl	0Gl	0cl	0r
!!LO:LB:i:g=z
=210||	=210||	=210||	=210||
*>C	*>C	*>C	*>C
*clefF4	*clefGv2	*clefGv2	*clefG2
*k[]	*k[]	*k[]	*k[]
*M2/1	*M2/1	*M2/1	*M2/1
*met(C|)	*met(C|)	*met(C|)	*met(C|)
!!section: Tertia pars: In Idumeam
!!!OMD: Tertia pars: In Idumeam
1.GG	1.D	1.G	0r
2GG	2D	2G	.
=211	=211	=211	=211
1C	1E	2G	0r
.	.	1A	.
1D	1F	.	.
.	.	[2B	.
=212	=212	=212	=212
0E	0G	2B]	0r
.	.	4A	.
.	.	4G	.
.	.	2c	.
.	.	[2B	.
=213	=213	=213	=213
1E	1G	2B]	0r
.	.	1c	.
1F	1A	.	.
.	.	[2d	.
=214	=214	=214	=214
0G	0B	2d]	0r
.	.	4c	.
.	.	4B	.
.	.	2d	.
.	.	[2e	.
=215	=215	=215	=215
1.G	1.B	2e]	0r
.	.	1d	.
2G	2B	2e	.
=216	=216	=216	=216
1G	1B	2d	0r
.	.	1e	.
1A	1c	.	.
.	.	2f	.
=217	=217	=217	=217
2G	2B	2e	0r
4F	4A	4d	.
4E	4G	4c	.
2F	2A	1d	.
2G	2B	.	.
=218	=218	=218	=218
0C	0c	[0e	[0g
=219	=219	=219	=219
1r	1r	0e]	0g_
1C	1c	.	.
=220	=220	=220	=220
0C	1.c	1r	0g]
.	.	1e	.
.	4B	.	.
.	4A	.	.
=221	=221	=221	=221
0C	2G	1.e	1r
.	2.G	.	.
.	.	.	1g
.	4F	.	.
.	4E	[2c	.
.	4D	.	.
=222	=222	=222	=222
1AA	1C	4c]	1a
.	.	4B	.
.	.	4A	.
.	.	4G	.
1AA	2r	1F	1cc
.	2C	.	.
=223	=223	=223	=223
0GG	2D	1G	1.b
.	2E	.	.
.	2D	1d	.
.	2G	.	4a
.	.	.	4g
=224	=224	=224	=224
0D	2.F	1d	1a
.	4E	.	.
.	1F	1d	1b
=225	=225	=225	=225
0C	0G	0e	0cc
=226	=226	=226	=226
1r	1r	1r	1r
1C	2.G	1e	1cc
.	4A	.	.
=227	=227	=227	=227
2.G	4B	1d	1b
.	4c	.	.
.	1d	.	.
4F	.	.	.
4D	.	1f	1a
4E	.	.	.
4F	[2c	.	.
4G	.	.	.
=228	=228	=228	=228
2A	4c]	1e	1.cc
.	4B	.	.
2E	4A	.	.
.	4G	.	.
1F	1A	2c	.
.	.	[2d	4b
.	.	.	4a
=229	=229	=229	=229
1G	2.G	2d]	2b
.	.	2.e	1g
.	8A/L	.	.
.	8B/J	.	.
1C	4c	.	.
.	4B	4d	.
.	4A	4c	[2a
.	4G	4B	.
=230	=230	=230	=230
2.D	2F	1A	4a]
.	.	.	4g
.	2A	.	4f
4C	.	.	4e
2BB	2B	1r	2d
2AA	2c	.	[2e
=231	=231	=231	=231
2C	1G	1c	4e]
.	.	.	4d
2E	.	.	1g
1D	1A	1d	.
.	.	.	2f#Xi
=232	=232	=232	=232
0GG	0G	1d	1g
.	.	2r	1r
.	.	2d	.
=233	=233	=233	=233
0r	0r	2e	0g
.	.	4d	.
.	.	4c	.
.	.	2B	.
.	.	[2c	.
=234	=234	=234	=234
0r	0r	2c]	1.a
.	.	4B	.
.	.	4A	.
.	.	2c	.
.	.	2d	2a
=235	=235	=235	=235
0r	0r	2B	1g
.	.	2.c	.
.	.	.	2e
.	.	4d	.
.	.	[2e	[2g
=236	=236	=236	=236
0r	0r	2e]	2g]
.	.	4d	4f
.	.	4c	4e
.	.	1B	1d
=237	=237	=237	=237
0r	0r	0c	1e
.	.	.	2r
.	.	.	[2g
=238	=238	=238	=238
0r	0r	2r	2g]
.	.	1c	2g
.	.	.	1a
.	.	2c	.
=239	=239	=239	=239
0r	0r	1d	1f
.	.	2c	1e
.	.	[2A	.
=240	=240	=240	=240
0r	0r	4A]	2.a
.	.	4B	.
.	.	4c	.
.	.	4d	4b
.	.	2e	2cc
.	.	[2d	[2b
=241	=241	=241	=241
0r	0r	2d]	2b]
.	.	4c	4a
.	.	4B	4g
.	.	2c	1a
.	.	2d	.
=242	=242	=242	=242
0r	0r	1G	1b
.	.	1r	1r
=243	=243	=243	=243
1C	1G	1c	1e
2C	2G	2c	2e
2C	2G	2c	2e
=244	=244	=244	=244
2C	2G	2c	2e
1C	1G	1e	1e
[2C	4c	[2e	[2g
.	4B	.	.
=245	=245	=245	=245
2C]	2c	2e]	2g]
2C	2c	2e	2g
2C	2c	2e	2a
2C	2c	2e	2g
=246	=246	=246	=246
2D	2A	2d	2g
2D	2A	2d	2f#Xi
1E	[1G	1B	1g
=247	=247	=247	=247
1r	1G]	2r	0r
.	.	1B	.
[1E	1r	.	.
.	.	4A	.
.	.	4G	.
=248	=248	=248	=248
1E]	1G	2B	0r
.	.	2c	.
1F	1A	2d	.
.	.	2c	.
=249	=249	=249	=249
0G	1.B	2e	0r
.	.	1d	.
.	2B	4c	.
.	.	4B	.
=250	=250	=250	=250
1G	1B	2e	0r
.	.	2d	.
[1G	2r	[1B	.
.	[2d	.	.
=251	=251	=251	=251
1G]	2d]	1B]	0r
.	4c	.	.
.	4B	.	.
1G	2e	2r	.
.	[2d	2B	.
=252	=252	=252	=252
1.A	2d]	1e	0r
.	1c	.	.
.	.	2f	.
2G	2B	[2e	.
=253	=253	=253	=253
2F	2A	4e]	0r
.	.	4d	.
4E	4G	2f	.
4D	4F	.	.
2E	2G	2e	.
2F	2A	[2d	.
=254	=254	=254	=254
1.G	1.B	2d]	0r
.	.	4c	.
.	.	4B	.
.	.	2e	.
2F	[2A	[2d	.
=255	=255	=255	=255
2E	4A]	4d]	0r
.	4G	4c	.
4D	1G	1c	.
4C	.	.	.
1D	.	.	.
.	2F	2B	.
=256	=256	=256	=256
1C	1G	0c	0e
1r	1r	.	.
=257	=257	=257	=257
0C	1G	1r	1e
.	2.E	1c	4e
.	.	.	4f
.	.	.	4g
.	4F	.	4a
=258	=258	=258	=258
0GG	4G	2B	1.b
.	4A	.	.
.	4B	2.G	.
.	4c	.	.
.	2d	.	.
.	.	4A	.
.	[2B	4B	[2g
.	.	4c	.
=259	=259	=259	=259
0G	4B]	2d	4g]
.	4c	.	4a
.	1d	4G	1b
.	.	4A	.
.	.	4B	.
.	.	4c	.
.	4c	4d	4a
.	4B	4e	4g
=260	=260	=260	=260
2F	2c	2f	2a
2G	2B	2e	1g
1D	1A	1d	.
.	.	.	2f#Xi
=261	=261	=261	=261
2r	1G	1.B	0g
1E	.	.	.
.	1r	.	.
4D	.	2c	.
4C	.	.	.
=262	=262	=262	=262
2BB	0G	2d	1r
2C	.	2e	.
1GG	.	1d	[1g
=263	=263	=263	=263
1.C	1G	0r	2g]
.	.	.	2g
.	[1A	.	1e
2C	.	.	.
=264	=264	=264	=264
1D	2A]	1d	1f
.	2A	.	.
1E	[1G	1B	[1g
=265	=265	=265	=265
1.C	1G]	1c	2g]
.	.	.	4f
.	.	.	4e
.	2r	1c	1e
4BB	2A	.	.
4AA	.	.	.
=266	=266	=266	=266
2GG	2B	2d	0r
2.C	4A	2.e	.
.	4G	.	.
.	4A	.	.
4AA	4D	4d	.
2C	[2G	[2c	.
=267	=267	=267	=267
1D	2G]	2c]	1d
.	2F	2B	.
[1C	2G	2.c	2.e
.	4F	.	.
.	4E	4d	4d
=268	=268	=268	=268
2C]	2G	2e	2c
4BB	2A	2c	2cc
4AA	.	.	.
2GG	2D	2d	2b
2AA	2F	2c	[2cc
=269	=269	=269	=269
0GG	1.G	1e	2cc]
.	.	.	4b
.	.	.	4a
.	.	1d	1b
.	2D	.	.
=270	=270	=270	=270
0r	2F	0c	0cc
.	2E	.	.
.	1C	.	.
=271	=271	=271	=271
1.C	2r	1.e	1.g
.	1c	.	.
2C	2c	2e	2g
=272	=272	=272	=272
1E	1B	1e	1g
1G	1B	1d	1g
=273	=273	=273	=273
1F	1c	1f	1a
1D	1d	1f	1a
=274	=274	=274	=274
0E	0B	1e	0g
.	.	2r	.
.	.	[2e	.
=275	=275	=275	=275
1A	1c	2e]	0r
.	.	4d	.
.	.	4c	.
1G	1B	2d	.
.	.	[2e	.
=276	=276	=276	=276
1E	1G	2e]	0r
.	.	1c	.
1F	1A	.	.
.	.	[2d	.
=277	=277	=277	=277
1G	1B	2d]	0r
.	.	1B	.
1E	[1G	.	.
.	.	[2e	.
=278	=278	=278	=278
1C	2G]	4e]	0r
.	.	4d	.
.	1A	1c	.
1D	.	.	.
.	4G	2B	.
.	4F	.	.
=279	=279	=279	=279
0C	2A	1c	1r
.	1G	.	.
.	.	2r	1g
.	4F	[2c	.
.	4E	.	.
=280	=280	=280	=280
0r	1F	4c]	1a
.	.	4B	.
.	.	4c	.
.	.	4d	.
.	[1E	2e	1g
.	.	2B	.
=281	=281	=281	=281
0r	2E]	1c	1e
.	4D	.	.
.	4C	.	.
.	1D	2B	1f
.	.	2A	.
=282	=282	=282	=282
0r	1C	2.e	1g
.	.	4f	.
.	2r	2g	1e
.	2C	2G	.
=283	=283	=283	=283
0r	2F	2A	1c
.	2A	1c	.
.	2G	.	1d
.	2G	2B	.
=284	=284	=284	=284
0r	1C	1c	1c
.	1r	1r	1r
=285	=285	=285	=285
*M3/1	*M3/1	*M3/1	*M3/1
*met(3)	*met(3)	*met(3)	*met(3)
0C	0c	0e	0g
1C	1c	1e	1g
=286	=286	=286	=286
0E	0B	0e	0g
1D	1d	1f	1a
=287	=287	=287	=287
1G	1B	1d	1b
0F	0c	0f	0a
=288	=288	=288	=288
1G	1B	1e	0g
0D	0A	0d	.
.	.	.	1f#Xi
=289	=289	=289	=289
*M2/1	*M2/1	*M2/1	*M2/1
*met(C|)	*met(C|)	*met(C|)	*met(C|)
2.GG	0G	1.B	1g
4AA	.	.	.
2BB	.	.	1r
[2C	.	4A	.
.	.	4G	.
=290	=290	=290	=290
2C]	0r	1A	1e
4BB	.	.	.
4AA	.	.	.
1C	.	1G	1e
=291	=291	=291	=291
0C	1E	1c	1.g
.	1E	1c	.
.	.	.	4f
.	.	.	4e
=292	=292	=292	=292
0GG	1.G	1.B	1d
.	.	.	1g
.	4F	4A	.
.	4E	4G	.
=293	=293	=293	=293
0r	2D	2.A	2f
.	2F	.	2d
.	.	4B	.
.	2E	2c	2e
.	[2D	[2d	[2f
=294	=294	=294	=294
0r	1D]	4d]	4f]
.	.	4e	4g
.	.	1f	1a
.	2.F	.	.
.	.	4e	4g
.	4G	4d	4f
=295	=295	=295	=295
0r	2A	2c	2e
.	2B-Xi	1d	2d
.	1A	.	1e
.	.	2c#Xi	.
=296	=296	=296	=296
1.D	2r	1d	1.f
.	2A	.	.
.	2F	1D	.
4C	2G	.	4e
4BB	.	.	4d
=297	=297	=297	=297
0AA	1.A	1E	1c
.	.	1r	2r
.	4G	.	[2cc
.	4F	.	.
=298	=298	=298	=298
0C	0E	1e	2cc]
.	.	.	4b
.	.	.	4a
.	.	4e	2g
.	.	4d	.
.	.	4c	[2a
.	.	4B	.
=299	=299	=299	=299
0D	0F	1A	4a]
.	.	.	4g
.	.	.	1f
.	.	1B	.
.	.	.	4e
.	.	.	4d
=300	=300	=300	=300
0C	1G	2.c	0e
.	.	4B	.
.	1c	2A	.
.	.	2G	.
=301	=301	=301	=301
1r	2B	1G	0g
.	4A	.	.
.	4G	.	.
1E	2B	2r	.
.	2c	2G	.
=302	=302	=302	=302
1F	1A	2c	1a
.	.	2.d	.
1G	[1G	.	1b
.	.	4c	.
.	.	2d	.
=303	=303	=303	=303
[0C	1G]	0e	1.cc
.	2r	.	.
.	[2c	.	4b
.	.	.	4a
=304	=304	=304	=304
0C]	2c]	1e	2g
.	4B	.	2a
.	4A	.	.
.	2.G	[1c	2e
.	.	.	[2cc
.	4E	.	.
=305	=305	=305	=305
1r	2A	2c]	2cc]
.	1G	2d	2b
1C	.	1e	2g
.	4F	.	2cc
.	4E	.	.
=306	=306	=306	=306
1D	1F	2.d	2b
.	.	.	1a
.	.	4c	.
1E	1G	1B	.
.	.	.	2g#Xi
=307	=307	=307	=307
[0AA	1E	1A	0a
.	2r	2r	.
.	2E	[2A	.
=308	=308	=308	=308
0AA]	2F	4A]	1r
.	.	4B	.
.	1E	4c	.
.	.	4d	.
.	.	4e	1a
.	.	4f	.
.	2A	[2e	.
=309	=309	=309	=309
1r	4G	2e]	1b
.	4F	.	.
.	4E	1d	.
.	4D	.	.
1AA	1E	.	1a
.	.	2c	.
=310	=310	=310	=310
1BB	2D	1d	1r
.	1G	.	.
1C	.	2e	1g
.	2E	[2c	.
=311	=311	=311	=311
0FF	2.F	2c]	2a
.	.	4B	1cc
.	4G	4A	.
.	2A	2c	.
.	2F	2d	4b
.	.	.	4a
=312	=312	=312	=312
1r	2G	2B	2b
.	2F	2c	1a
1FF	[1c	2A	.
.	.	4G	[2cc
.	.	4F	.
=313	=313	=313	=313
0C	0c]	1E	2cc]
.	.	.	4b
.	.	.	4a
.	.	1e	2g
.	.	.	[2a
=314	=314	=314	=314
0D	0A	0d	4a]
.	.	.	4g
.	.	.	4f
.	.	.	4e
.	.	.	1f
=315	=315	=315	=315
1.E	[0G	1B	1.g
.	.	[1c	.
[2C	.	.	[2e
=316	=316	=316	=316
2C]	0G]	1c]	4e]
.	.	.	4f
2.E	.	.	1g
.	.	[1B	.
4F	.	.	.
[2G	.	.	4f
.	.	.	4e
=317	=317	=317	=317
2G]	1r	2B]	2d
4F	.	2c	1g
4E	.	.	.
1D	1A	1d	.
.	.	.	2f#Xi
=318	=318	=318	=318
0G	0B	2r	0g
.	.	1d	.
.	.	[2e	.
=319	=319	=319	=319
1C	1c	2e]	2r
.	.	4d	2.g
.	.	4c	.
[1G	1d	2B	.
.	.	.	4a
.	.	2G	[2b
=320	=320	=320	=320
2G]	1B	2B	2b]
4F	.	2c	4a
4E	.	.	4g
1F	1c	1A	1a
=321	=321	=321	=321
0G	1B	4G	2d
.	.	4A	.
.	.	4B	4g
.	.	4c	4a
.	2G	2d	4b
.	.	.	4cc
.	[2B	[2G	[2dd
=322	=322	=322	=322
0GG	4B]	4G]	4dd]
.	4c	4A	4cc
.	1d	4B	1b
.	.	4c	.
.	.	1d	.
.	4c	.	4a
.	4B	.	4g
=323	=323	=323	=323
0D	2A	1r	2f#Xi
.	2G	.	1g
.	1A	1d	.
.	.	.	2f#Xi
=324	=324	=324	=324
1.E	[0Gl	1.B	[0gl
4D	.	2c	.
4C	.	.	.
=325	=325	=325	=325
2BB	0G_	2d	0g_
2AA	.	1e	.
1C	.	.	.
.	.	4d	.
.	.	4c	.
=326	=326	=326	=326
0GGl	0G]	0dl	0g]
==	==	==	==
*-	*-	*-	*-
!!!RDF**kern: l=long note in original notation
!!!system-decoration: s1,s2,s3,s4
!!!RDF**kern: i = editorial accidental
!!!ENC: Chris Gage 04-30-2014
!!!END: 2020/10/21/
!!!EED: Jesse Rodin
!!!EEV: 2020/10/23/
!!attribution-level@Jos: 4a (the rest [double question mark])
!!!ONB: Translated from MusicXML and edited on 2020/10/23/ by Craig Sapp
!!muse2ps: C^@{COA}?\n@{SCT}^i2I150v85,85,85,150c118
